X:475
T:Walls Of Time
C:Kick-Off Break - Ricky Skaggs
N:From "Ancient Tones" Transcribed By Mike Stangeland
R:bluegrass
L:1/8
Q:1/4=150
M:4/4
K:C
z2 [B2^F2] [B2F2] AF | "B"AB B2 BB {^c}^d^f | e^d BB A{B}A ^FF | AB BB A^F E^D | 
{E}^DB, B,B, DE ^FA | {_B}=BB B2 BB {^c}^d^f | e^d BB A^F ^DB, | "E"E2 EE {^F}^GB BG | 
K:B
"A"=AA {=c}^ce =ag fe | "B"cd ed ed ec | eB e=A zG AF | =AE {=F}^FA F2 F{=G}A | 
B{c}d f{c}d =ad b2 | "E"b{=c'}=d' zd' bb (3=a/b/a/f | "F#"=af ed (3d/e/d/B {=d}^df | 
{d}"B"e{=d}^d B=A {=F}^FA EF | B8 | "."z8 | 


